www/assets/icons/calendar_view_week.svg

<svg xmlns="http://www.w3.org/2000/svg" width="24" height="24" viewBox="0 0 24 24" fill='currentColor'><path d="M20 4H4c-1.1 0-2 .9-2 2v12c0 1.1.9 2 2 2h16c1.1 0 2-.9 2-2V6c0-1.1-.9-2-2-2m-7 2h2.5v12H13zm-2 12H8.5V6H11zM4 6h2.5v12H4zm16 12h-2.5V6H20z"/></svg>

<svg width="24" height="24" viewBox="0 0 24 24" xmlns="http://www.w3.org/2000/svg" fill='currentColor'><path d="M20 4H4C2.9 4 2 4.9 2 6V18C2 19.1 2.9 20 4 20H20C21.1 20 22 19.1 22 18V6C22 4.9 21.1 4 20 4ZM13 6H15.5V18H13V6ZM11 18H8.5V6H11V18ZM4 6H6.5V18H4V6ZM20 18H17.5V6H20V18Z"/></svg>
